svg/u1f5f3.svg

<svg viewBox="0 0 128 128" xmlns="http://www.w3.org/2000/svg">
  <g>
    <path d="M66.13,68.34l56.04-29.23c0,0,0.02-0.74,0-1.26L59.86,10.83c-0.25-0.11-0.54-0.1-0.79,0.03 L4.89,39.52c-0.21,0.11-0.33,0.32-0.33,0.55l0,52.95c0,0.62,0.35,1.19,0.89,1.47c0.56,0.29,1.12,0.58,1.68,0.87 c1.52,0.78,55.95,29.27,57.75,28.62c0.53-0.19,0.93-0.55,1.25-0.98V68.34z" fill="#1976D2"/>
    <g>
      <path d="M64.7,67.32c6.65-3.21,57.55-27.78,57.47-29.47L59.82,10.81c-0.23-0.1-0.49-0.09-0.72,0.03 L4.87,39.53c-0.13,0.07-0.13,0.26,0.01,0.32l58.38,27.47C63.72,67.53,64.24,67.53,64.7,67.32z" fill="#039BE5"/>
      <g>
        <path d="M122.72,94.41l-56.76,29.26c-0.9,0.46-1.96-0.19-1.96-1.2V68.93c0-1.27,0.85-1.73,1.3-1.96 L121.48,38c0.9-0.46,1.96-0.15,1.96,1.2v54.02C123.45,93.72,123.17,94.18,122.72,94.41z" fill="#0D47A1"/>
        <polygon points="74.89,46.1 42.64,29.99 48.69,26.98 80.94,43.09 " fill="#212121"/>
        <path d="M78.23,41.74L54.42,29.84c0,0,5.34-4.95,17.4-11.33c0.45-0.24,2.67-1.53,3.15-1.28l28.27,12.3 C91.74,30.99,78.23,41.74,78.23,41.74z" fill="#0D47A1"/>
        <polygon points="48.69,28.78 79.13,43.98 80.94,43.09 48.69,26.98 42.64,29.99 44.44,30.89 " fill="#0D47A1"/>
        <path d="M98.96,17.94c-11.65,7.11-26.53,26.93-26.53,26.93l-24.8-12.39c0,0,13.15-21.54,28.52-28.33 c0.46-0.2,1.01-0.22,1.49,0.04l21.18,11.2C99.9,15.96,99.94,17.34,98.96,17.94z" fill="#DFECF5"/>
      </g>
      <polygon points="63.98,74.86 4.55,46.9 4.55,49.09 63.98,77.05 64.41,76.85 " opacity="0.7" fill="#0D47A1"/>
      <polygon points="64,74.85 64,77.04 123.45,46.54 123.45,44.31 " fill="#0A3160"/>
    </g>
    <path d="M39.24,48.13c0-3.48,2.07-4.14,4.63-4.14s4.63,0.81,4.63,4.14c0,1.54-2.07,2.78-4.63,2.78 S39.24,49.67,39.24,48.13z" fill="#616161"/>
    <ellipse cx="43.87" cy="46.65" rx="4.42" ry="2.78" fill="#E0E0E0"/>
  </g>
</svg>

<svg viewBox="0 0 128 128" xmlns="http://www.w3.org/2000/svg">
  <defs/>
  <path d="M66.13,68.34 L122.17,39.11 C122.17,39.11 122.19,38.37 122.17,37.85 L59.86,10.83 C59.61,10.72 59.32,10.73 59.07,10.86 L4.89,39.52 C4.68,39.63 4.56,39.84 4.56,40.07 L4.56,93.02 C4.56,93.64 4.91,94.21 5.45,94.49 C6.01,94.78 6.57,95.07 7.13,95.36 C8.65,96.14 63.08,124.63 64.88,123.98 C65.41,123.79 65.81,123.43 66.13,123 L66.13,68.34 Z" fill="#1976D2"/>
  <path d="M64.7,67.32 C71.35,64.11 122.25,39.54 122.17,37.85 L59.82,10.81 C59.59,10.71 59.33,10.72 59.1,10.84 L4.87,39.53 C4.74,39.6 4.74,39.79 4.88,39.85 L63.26,67.32 C63.72,67.53 64.24,67.53 64.7,67.32 Z" fill="#039BE5"/>
  <path d="M122.72,94.41 L65.96,123.67 C65.06,124.13 64,123.48 64,122.47 L64,68.93 C64,67.66 64.85,67.2 65.3,66.97 L121.48,38 C122.38,37.54 123.44,37.85 123.44,39.2 L123.44,93.22 C123.45,93.72 123.17,94.18 122.72,94.41 Z" fill="#0D47A1"/>
  <path d="M74.89,46.1 L42.64,29.99 L48.69,26.98 L80.94,43.09 Z" fill="#212121"/>
  <path d="M78.23,41.74 L54.42,29.84 C54.42,29.84 59.76,24.89 71.82,18.51 C72.27,18.27 74.49,16.98 74.97,17.23 L103.24,29.53 C91.74,30.99 78.23,41.74 78.23,41.74 Z" fill="#0D47A1"/>
  <path d="M48.69,28.78 L79.13,43.98 L80.94,43.09 L48.69,26.98 L42.64,29.99 L44.44,30.89 Z" fill="#0D47A1"/>
  <path d="M98.96,17.94 C87.31,25.05 72.43,44.87 72.43,44.87 L47.63,32.48 C47.63,32.48 60.78,10.94 76.15,4.15 C76.61,3.95 77.16,3.93 77.64,4.19 L98.82,15.39 C99.9,15.96 99.94,17.34 98.96,17.94 Z" fill="#DFECF5"/>
  <path d="M63.98,74.86 L4.55,46.9 L4.55,49.09 L63.98,77.05 L64.41,76.85 Z" fill="#0D47A1" opacity="0.7"/>
  <path d="M64,74.85 L64,77.04 L123.45,46.54 L123.45,44.31 Z" fill="#0A3160"/>
  <path d="M39.24,48.13 C39.24,44.65 41.31,43.99 43.87,43.99 C46.43,43.99 48.5,44.8 48.5,48.13 C48.5,49.67 46.43,50.91 43.87,50.91 C41.31,50.91 39.24,49.67 39.24,48.13 Z" fill="#616161"/>
  <path d="M48.29,46.65 A4.42 2.78 0 1 1 39.45,46.65 A4.42 2.78 0 1 1 48.29,46.65 Z" fill="#E0E0E0"/>
</svg>
